usr/share/icons/biglinux-icons-material/scalable/mimetypes/libreoffice-oasis-presentation.svg

<svg width="24" height="24" viewBox="0 0 24 24" fill="none" xmlns="http://www.w3.org/2000/svg">
<rect x="1" y="1" width="22" height="22" rx="6.6" fill="url(#paint0_radial_32_35)"/>
<path d="M7.83529 7C6.26935 7 5 8.26943 5 9.83549C5 11.4015 6.26945 12.671 7.83529 12.671C9.40122 12.671 10.6706 11.4015 10.6706 9.83549H7.83529V7ZM12.0886 7.70868V8.77198H19V7.70868H12.0886ZM12.1649 10.8986L12.0886 11.9619H19V10.8986H12.1649ZM5.70886 15.1518V16.215H16.3415L16.3418 15.1518H5.70886Z" fill="#FAFAFA"/>
<defs>
<radialGradient id="paint0_radial_32_35" cx="0" cy="0" r="1" gradientUnits="userSpaceOnUse" gradientTransform="translate(17.5 1) rotate(116.565) scale(24.5967)">
<stop stop-color="#FADC5D"/>
<stop offset="1" stop-color="#F9CE1D"/>
</radialGradient>
</defs>
</svg>

<svg xmlns="http://www.w3.org/2000/svg" width="24" height="24" fill="none"><rect width="22" height="22" x="1" y="1" fill="url(#a)" rx="6.6"/><path fill="#FAFAFA" d="M7.835 7a2.835 2.835 0 1 0 2.836 2.835H7.835V7Zm4.254.709v1.063H19V7.709h-6.911Zm.076 3.19-.076 1.063H19v-1.063h-6.835Zm-6.456 4.253v1.063h10.633v-1.063H5.709Z"/><defs><radialGradient id="a" cx="0" cy="0" r="1" gradientTransform="rotate(116.565 8.441 5.908) scale(24.5967)" gradientUnits="userSpaceOnUse"><stop stop-color="#FADC5D"/><stop offset="1" stop-color="#F9CE1D"/></radialGradient></defs></svg>
